X: 65
M:6/8
L:1/8
Q:160
K:Gm
|: d|ABc c>dc|f2 c c2 A|B2 A B2 c|d3 d2 d|c2 B A>Bc|B2 A dAB|A G ^F>=GF|G3 G2:|

